src/images/svg/student.svg

<svg width="40" height="48" viewBox="0 0 40 48" fill="none" xmlns="http://www.w3.org/2000/svg">
<g clip-path="url(#clip0)">
<path d="M-0.153905 47.6381C5.00753 47.6381 34.8677 47.6381 40.0231 47.6381C40.2221 43.0563 39.8939 35.4544 37.0769 31.8363L36.9751 31.7063L30.8193 28.6156C30.9529 28.1647 31.0188 27.7517 31.0451 27.4481C31.0756 27.0838 31.0253 26.7414 30.8952 26.4314C29.8797 24.0013 27.7307 22.7228 26.5487 22.1777C26.9089 21.452 27.1412 20.6729 27.2533 19.8768C27.9224 19.6883 28.4607 19.158 28.6371 18.4506L29.3556 15.5316C29.4829 15.0166 29.403 14.4826 29.1293 14.0284C29.0116 13.8326 28.8593 13.6677 28.6885 13.5268C30.7143 8.92517 27.3213 4.5863 27.1364 4.35791C23.4618 0.384904 18.8197 1.12781 18.5743 1.17183C11.8751 2.57462 9.28987 7.70877 10.7494 13.7302C10.317 14.2092 10.1355 14.8765 10.2958 15.5309L11.0178 18.4531C11.1929 19.1553 11.7268 19.6837 12.3912 19.8744C12.5962 21.3323 13.2133 22.6509 14.1196 23.7136V26.0277C4.50622 30.9507 10.5975 27.8099 2.89344 31.7074C2.87821 31.7801 -0.72148 35.6058 -0.186435 46.9453L-0.153905 47.6381ZM38.6271 46.1836H32.0147V43.4059L36.3881 33.3941C38.579 37.0305 38.6603 43.9737 38.6271 46.1836ZM29.6025 27.3245C29.3473 30.2558 27.7398 29.3698 26.7475 31.6282C25.967 30.7699 25.7323 29.7408 25.942 28.6392C26.3209 26.6164 25.0863 26.0157 25.3915 23.8903L25.4377 23.8416V23.8348C25.464 23.8055 25.7074 23.5156 25.7779 23.424C28.394 24.5644 29.6535 26.6854 29.6025 27.3245ZM15.568 25.0206C16.7825 25.8629 18.2485 26.3608 19.8253 26.3608C21.3104 26.3608 22.7208 25.9287 23.9301 25.133C24.0977 26.8038 24.7508 27.1383 24.5191 28.3679C24.4756 28.5961 24.4521 28.821 24.4381 29.0422L19.935 34.1175L14.1784 27.6276L15.568 26.902V25.0206H15.568ZM13.7575 18.8093V15.9953C13.7575 14.9591 13.7575 10.8481 13.7575 11.0511C14.4584 9.75493 15.4138 8.81495 16.6012 8.25138C19.7813 10.0507 23.4418 12.736 25.8967 15.4386C25.8944 18.8803 25.9064 18.8896 25.8835 19.1724L25.882 19.1904C25.6904 22.3156 23.1206 24.9062 19.8253 24.9062C16.6217 24.9062 13.9619 22.3909 13.7695 19.1594C13.7596 19.0436 13.7575 18.9275 13.7575 18.8093ZM12.8608 28.3295L19.935 36.3043L24.6843 30.9515C24.7929 31.2641 24.9451 31.5593 25.1193 31.8446L19.935 38.3277L12.2041 28.6591L12.8608 28.3295ZM27.3451 17.6388V15.392C27.4087 15.319 27.9486 14.6999 27.885 14.7729C27.9148 15.9105 28.0376 14.5678 27.3451 17.6388ZM18.8423 2.60117C19.1297 2.61906 22.99 2.01398 26.041 5.30785C26.1611 5.4586 28.6447 8.65848 27.6469 12.159C27.3054 10.6014 26.7101 8.60526 25.7694 7.65266L24.7411 8.67681C25.67 9.61759 26.2801 12.4825 26.5125 13.9677C22.2518 9.5094 16.7558 6.68763 16.6804 6.63988C16.4048 6.81131 14.079 7.25349 12.3898 10.5365L12.3092 10.6935V13.1047C12.2366 13.1055 12.0237 13.1078 12.0963 13.107C11.023 7.92547 13.0783 3.80932 18.8423 2.60117ZM11.9436 14.6033L12.3092 16.0841V17.6406L11.7017 15.1818C11.6125 14.8153 11.884 14.6763 11.9436 14.6033ZM10.8787 29.3245L19.935 40.6509L26.0622 32.9874C26.7288 33.5839 27.0492 33.6685 28.4624 34.3952L27.9858 32.7784C27.8649 32.3679 28.3436 31.7095 28.6329 31.4069C29.2785 31.0567 29.8166 30.5573 30.2191 29.9407L35.2184 32.451L30.5664 43.1012V46.1836H9.30284V43.1008L4.64872 32.452L10.8787 29.3245ZM3.48042 33.3973L7.85448 43.4062V46.1836H1.24211C1.20888 43.9744 1.29092 37.0348 3.48042 33.3973Z" fill="#FF6B09"/>
</g>
<defs>
<clipPath id="clip0">
<rect width="39.8298" height="48" fill="white"/>
</clipPath>
</defs>
</svg>

<svg xmlns="http://www.w3.org/2000/svg" fill="none" viewBox="0 0 40 48"><g clip-path="url(#clip0)"><path fill="#FF6B09" d="M-.154 47.638h40.177c.2-4.582-.13-12.184-2.946-15.802l-.102-.13-6.156-3.09c.134-.451.2-.864.226-1.168a2.14 2.14 0 0 0-.15-1.017c-1.015-2.43-3.164-3.708-4.346-4.253.36-.726.592-1.505.704-2.301a1.975 1.975 0 0 0 1.384-1.426l.719-2.92a1.975 1.975 0 0 0-.227-1.503 1.967 1.967 0 0 0-.44-.501c2.025-4.602-1.368-8.94-1.553-9.17-3.674-3.972-8.316-3.23-8.562-3.185C11.875 2.575 9.29 7.709 10.75 13.73a1.977 1.977 0 0 0-.453 1.8l.722 2.923c.175.702.709 1.23 1.373 1.421a7.52 7.52 0 0 0 1.729 3.84v2.314c-9.614 4.923-3.522 1.782-11.227 5.68-.015.072-3.614 3.898-3.08 15.237l.033.693zm38.781-1.454h-6.612v-2.778l4.373-10.012c2.191 3.637 2.272 10.58 2.24 12.79zm-9.025-18.86c-.255 2.932-1.862 2.046-2.855 4.304-.78-.858-1.015-1.887-.805-2.989.379-2.023-.856-2.623-.55-4.749l.046-.048v-.007c.026-.03.27-.32.34-.411 2.616 1.14 3.876 3.261 3.825 3.9zm-14.034-2.303a7.449 7.449 0 0 0 8.362.112c.168 1.67.82 2.005.59 3.235a5.408 5.408 0 0 0-.082.674l-4.503 5.075-5.757-6.49 1.39-.725v-1.881zm-1.81-6.212v-2.814-4.944c.7-1.296 1.656-2.236 2.843-2.8 3.18 1.8 6.84 4.485 9.296 7.188-.003 3.441.01 3.45-.013 3.733l-.002.018c-.192 3.126-2.761 5.716-6.057 5.716-3.203 0-5.863-2.515-6.055-5.747a4.102 4.102 0 0 1-.012-.35zm-.897 9.52l7.074 7.975 4.75-5.353c.108.313.26.608.434.894l-5.184 6.483-7.73-9.669.656-.33zm14.484-10.69v-2.247l.54-.62c.03 1.139.153-.204-.54 2.867zM18.842 2.6c.288.018 4.148-.587 7.199 2.707.12.15 2.604 3.35 1.606 6.851-.342-1.558-.937-3.554-1.878-4.506l-1.028 1.024c.929.94 1.54 3.806 1.771 5.29-4.26-4.458-9.756-7.28-9.832-7.327-.275.171-2.601.613-4.29 3.897l-.08.156v2.412l-.214.002c-1.073-5.182.982-9.298 6.746-10.506zm-6.898 12.002l.365 1.481v1.557l-.607-2.46c-.09-.366.182-.505.242-.578zm-1.065 14.722l9.056 11.326 6.127-7.664c.667.597.987.681 2.4 1.408l-.476-1.617c-.121-.41.358-1.069.647-1.371a4.38 4.38 0 0 0 1.586-1.466l5 2.51-4.653 10.65v3.083H9.303V43.1L4.649 32.452l6.23-3.127zM3.48 33.397l4.374 10.01v2.777H1.242c-.033-2.21.049-9.15 2.238-12.787z"/></g><defs><clipPath id="clip0"><path fill="#fff" d="M0 0h39.83v48H0z"/></clipPath></defs></svg>
